!!!!SEGMENT: pl-wumfc--n50515--001-003_moniuszko-stanislaw--lirnik-wioskowy-liro-ty-moja-spiewna-work-3.krn
!!!cenid: 18xx:4129
!!!COM: Moniuszko, Stanisław
!!!COM-rismID: pe30008351
!!!CDT: 1819/05/05-1872/06/04
!!!CNT: Polish
!!!GTL: Lirnik wioskowy/Liro ty moja śpiewna
!!!OTL: [work 3]
!!!OMV: 003
!!!PDT:
!!!AGN:
!!!YEC: Copyright 2022 Narodowy Instytut Fryderyka Chopina (https://polishscores.org)
!!!YEM: License CC-BY-4.0 (https://creativecommons.org/licenses/by/4.0)
!!!SMS-siglum: PL-Wumfc
!!!SMS-shelfmark: N50515
!!!SMS-shelfwork: 001-003 G
!!!SMS-variant:
!!!SMS-altvar:
!!!NIFC-rismSourceID: 1001166115
!!!NIFC-rismChildID: 1001166115
!!!NIFC-islandoraID: pl-wumfc:6615
!!!URL-pdf-islandora: https://repozytorium.nifc.pl/islandora/object/pl-wumfc%3A6615/datastream/PDF/view
!!!URL-scan: https://polish.musicsources.pl/pl/lokalizacje/galeria/druki-muzyczne/12529/9 @EN{Scan on Polish Music Sources Website} @PL{Skany w portalu Dziedzictwo Muzyki Polskiej w otwartym dostępie}
!!!IIIF:
!!!ONB-nifc: UWAGA: pieśń nr 3, str. 9-13.
!!!AIN: 1 piano 1 soprn
!!!key: f#
**kern	**kern	**dynam	**kern	**text	**dynam
*part2	*part2	*	*part1	*	*
*staff3	*staff2	*	*staff1	*	*
*I"	*I"	*	*	*	*
*Ipiano	*Ipiano	*	*Isoprn	*	*
*ICklav	*ICklav	*	*ICvox	*	*
*IGacmp	*IGacmp	*	*IGsolo	*	*
*clefF4	*clefG2	*	*clefG2	*	*
*k[f#c#g#]	*k[f#c#g#]	*	*k[f#c#g#]	*	*
*f#:	*f#:	*	*f#:	*	*
*M6/8	*M6/8	*	*M6/8	*	*
=1	=1	=1	=1	=1	=1
*^	*	*	*	*	*
!LO:N:vis=2.	!	!	!LO:DY:b	!LO:TX:i:a:t=Andantino	!	!
(<8FF#/L	2.FF#\	8r	mf	2.r	.	.
.	.	(8qf#/	.	.	.	.
!	!	!	!LO:HP:a	!	!	!
8C#/	.	(>[4ff# [4f#/)	>	.	.	.
8F#/	.	.	.	.	.	.
8A/	.	8ff#]L 8f#/]	]	.	.	.
8F#/	.	8ee/	<	.	.	.
8C#/J)	.	8dd/J	.	.	.	.
=2	=2	=2	=2	=2	=2	=2
!LO:N:vis=2.	!	!	!	!	!	!
(<8AA/L	2.AA\	8cc#t\L	.	2.r	.	.
8C#/	.	8b\	.	.	.	.
8F#/	.	8cc#\J	.	.	.	.
8c#/	.	8ee\L	[ >	.	.	.
8F#/	.	8dd\	.	.	.	.
8C#/J)	.	8cc#\J	]]	.	.	.
=3	=3	=3	=3	=3	=3	=3
!LO:N:vis=2.	!	!	!	!	!	!
(<8GG#/L	2.GG#\	4.cc#^\	.	2.r	.	.
8D/	.	.	.	.	.	.
8F#/	.	.	.	.	.	.
8B/	.	4b\	.	.	.	.
8D/	.	.	.	.	.	.
8F#/J)	.	8a/	.	.	.	.
=4	=4	=4	=4	=4	=4	=4
(8E#X/L	2.C#\	8g#/L	<	2.r	.	.
8F#/	.	8a/	.	.	.	.
8G#/	.	8b/	[[	.	.	.
8A/	.	8cc#/	>	.	.	.
8B/	.	8g#/	.	.	.	.
8c#/J)	.	8a/J)	]]	.	.	.
*v	*v	*	*	*	*	*
!!LO:LB:g=original
=5	=5	=5	=5	=5	=5
!	!	!LO:DY:b	!	!	!
[2.FF#\	8r	pp	2.r	.	.
.	(8A</L	.	.	.	.
.	8f#/	.	.	.	.
.	8c#/	.	.	.	.
.	8A</	.	.	.	.
.	8F#</J	.	.	.	.
=6	=6	=6	=6	=6	=6
4FF#\]	8C#</L	.	2.r	.	.
.	8A</	.	.	.	.
8r	8F#</	.	.	.	.
4r	8C#</	.	.	.	.
.	8AA</	.	.	.	.
8rCC	8GG#</J)	.	.	.	.
=7	=7	=7	=7	=7	=7
*^	*^	*	*	*	*
*	*	*	*^	*	*	*	*
!	!	!	!	!	!	!LO:TX:i:a:t=dolente	!	!LO:DY:a
8FF#/L	(4.FF#\	(4cc#/	2.c#\	4ryy	.	4cc#\	Li-	p
8G#/	.	.	.	.	.	.	.	.
8C#/J	.	8b/	.	8ryy	.	8b\	-ro	.
*	*	*	*	*Xtuplet	*	*	*	*
8FF#/L	4.FF#\	8a/L	.	24a\LL	.	8a/	ty	.
.	.	.	.	24b\	.	.	.	.
.	.	.	.	24a\JJ	.	.	.	.
8A/	.	8g#/	.	8ryy	.	8g#/	mo-	.
8C#/J	.	8f#/J	.	8ryy	.	8f#/	-ja	.
*	*	*	*v	*v	*	*	*	*
=8	=8	=8	=8	=8	=8	=8	=8
8FF#/L	4.FF#\	4.f#^/	2.G#\	.	4.f#/	śpiew-	.
8B/	.	.	.	.	.	.	.
8Dn/J	.	.	.	.	.	.	.
8FF#/L	4.FF#\	4.e#X/)	.	.	4.e#X/	-na!	.
8B/	.	.	.	.	.	.	.
8C#/J	.	.	.	.	.	.	.
=9	=9	=9	=9	=9	=9	=9	=9
8FF#/L	4.FF#\	(8enT/L	4.Gn\	.	8en/	z cza-	.
8B/	.	8d/	.	.	8d/	-ro-	.
8C#/J	.	8e/J	.	.	8e/	-dziej-	.
!LO:TX:i:a:t=P:problem:mixed beam	!	!	!	!	!	!	!
8FF#/L	4.FF#\	4f#/	8F#\	.	4f#/	-skie-	.
8A#X\	.	.	8r	.	.	.	.
8F#\J	.	8c#/	8r	.	8c#/	-go	.
*	*	*v	*v	*	*	*	*
!!LO:LB:g=original
=10	=10	=10	=10	=10	=10	=10
8BB/L	4.BB\	4.e 4.c#^/	.	4.e/	drew-	.
8A#X/	.	.	.	.	.	.
8F#/J	.	.	.	.	.	.
8BB/L	4.BB\)	4.d/)	.	4d/	-na,	.
8B/	.	.	.	.	.	.
8F#/J	.	.	.	8r	.	.
*v	*v	*	*	*	*	*
=11	=11	=11	=11	=11	=11
[>2.C#/	8r	.	8c#/L	wąt-	.
.	(8A/L	.	8f#/J	.	.
.	8c#/	.	8g#/	-łe	.
.	8f#/	.	8a/	z to-	.
.	8c#/	.	8g#/	-bą	.
.	8A/J)	.	8f#/	na-	.
=12	=12	=12	=12	=12	=12
2.C#] 2.CC#/	8r	.	(4g#/	-dzie-	.
.	(8B/L	.	.	.	.
.	8c#/	.	8a/)	.	.
.	8e#X/	.	4g#/	-je!	.
.	8c#/	.	.	.	.
.	8B/J)	.	8r	.	.
=13	=13	=13	=13	=13	=13
(4.C#/	8r	.	8c#/	snadź	.
.	(8A/L	.	8f#/	twe	.
.	8c#/	.	8g#/	pio-	.
4.BB#X/	8f#/	.	8a/	-sen-	.
.	8d#X/	.	8g#/	-ki	.
.	8A/J)	.	8f#/	nie-	.
=14	=14	=14	=14	=14	=14
2.C#/)	8r	.	(4g#/	-pię-	.
.	(8G#/L	.	.	.	.
.	.	.	8qb/	.	.
.	8c#/	.	8a/)	.	.
.	8en/	.	4g#/	-kne!	.
.	8c#/	.	.	.	.
.	8G#/J)	.	8r	.	.
!!LO:PB:g=original
=15	=15	=15	=15	=15	=15
*^	*^	*	*	*	*
8EEn/L	(4.EE\	(4.cc#^/	4.g# 4.c#\	.	4cc#\	Czy	.
8G#/	.	.	.	.	.	.	.
8C#/J	.	.	.	.	8b\	przed	.
8FF#/L	4.FF#\	4a/	4.c#\	.	8a/	Bo-	.
8A/	.	.	.	.	8g#/	-giem	.
8C#/J	.	8f#/)	.	.	8f#/	u-	.
*	*	*v	*v	*	*	*	*
=16	=16	=16	=16	=16	=16	=16
8GG#/L	4.GG#\	(>4.f# 4.d/	.	4.f#/	-klę-	.
8B/	.	.	.	.	.	.
8E/J	.	.	.	.	.	.
8AA/L	4.AA\	4en/)	.	4en/	-knę,	.
8c#/	.	.	.	.	.	.
8E/J	.	8r	.	8r	.	.
=17	=17	=17	=17	=17	=17	=17
*	*	*^	*	*	*	*
8GGn/L	4.GG\	(4.e/	4.c#\	.	8r	.	.
8B/	.	.	.	.	8d/	czy	.
8E/J	.	.	.	.	8e/	dla	.
8FF#/L	4.FF#\	4f#/	4.A#X\	.	8f#/	lu-	.
8F#/	.	.	.	.	8B#X/	-dzi	.
[<8E/J	.	8c#/	.	.	8c#/	za	.
*	*	*v	*v	*	*	*	*
=18	=18	=18	=18	=18	=18	=18
8E/L]	2.BB\)	4.e 4.A#X/	.	4.e/	pie-	.
8C#/	.	.	.	.	.	.
[<8F#/J	.	.	.	.	.	.
8F#/L]	.	4d 4B/)	.	4d/	-ję	.
8D/	.	.	.	.	.	.
8F#/J	.	8r	.	8r	.	.
*v	*v	*	*	*	*	*
!!LO:LB:g=original
=19	=19	=19	=19	=19	=19
*	*^	*	*	*	*
2.D 2.GGn/	(8B/L	4.B\	.	8d/L	tyl-	.
.	8d/	.	.	8gn/J	.	.
.	8gn/J	.	.	8a/	-ko	.
.	8B/L	4.B\	.	8b\	rozg-	.
.	8d/	.	.	8a/	-war	.
.	8g/J	.	.	8g/	twój	.
=20	=20	=20	=20	=20	=20	=20
2.D 2.GGn/	8cn/L	4.c\	.	(4a/	znu-	.
.	8d/	.	.	.	.	.
.	8f#/J	.	.	8b\)	.	.
.	8c/L	4.c\	.	4a/	-dzi	.
.	8d/	.	.	.	.	.
.	8f#/J)	.	.	8r	.	.
=21	=21	=21	=21	=21	=21	=21
(<4.Gn 4.GGn/	(8B/L	(4.B\	<	8d/L	Pa-	.
.	8d/	.	.	8gn/J	.	<
.	8gn/J	.	.	8a/	-na	.
4.F# 4.FF#/	8d/L	4.d\)	.	8b\	Bo-	.
.	8g/	.	[[	8a#X/	-ga	.
.	8b/J	.	.	8b\	i	[[
*	*v	*v	*	*	*	*
=22	=22	=22	=22	=22	=22
8E#XL 8EE#X/	(2.dd 2.b 2.g#X (2.d/	>	2.dd\	lu-	>]
8GG#X/	.	.	.	.	.
8BB/	.	.	.	.	.
8D/	.	.	.	.	.
8E#/	.	.	.	.	.
8G#/J	.	]	.	.	.
=23	=23	=23	=23	=23	=23
4B 4E#X 4C#\)	4cc# 4g# 4c#'/)))	.	4cc#\	-dzi,	.
8r	8r	.	8r	.	.
4r	4r	.	4r	.	.
!	!	!LO:DY:b	!	!	!
8r	(8cc#\	pp	8r	.	.
=24	=24	=24	=24	=24	=24
*^	*	*	*	*	*
!	!	!LO:TX:i:a:t=dolcissimo	!	!	!	!
8r	(2.F#\	8b#X/L	.	2.r	.	.
(<8A/L	.	8a/	.	.	.	.
8B#X/	.	8g#/J	.	.	.	.
8d#X/	.	8f#/L	.	.	.	.
8B#/	.	8e#X/	.	.	.	.
8A/J)	.	8f#/J	.	.	.	.
*v	*v	*	*	*	*	*
!!LO:LB:g=original
=25	=25	=25	=25	=25	=25
*	*^	*	*	*	*
4FF#\)	4.a^>/	8r<	.	4r	.	.
!	!LO:TX:i:b:t=m.d.	!	!	!	!	!
.	.	(<8A</L	.	.	.	.
8r	.	8c#</J	.	8r	.	.
4r	4.f#/)	8f#</L	.	4r	.	.
.	.	8c#</	.	.	.	.
!	!	!	!	!	!	!LO:DY:a
8r	.	8A</J)	.	[8cc#\	serc	>
*	*v	*v	*	*	*	*
=26	=26	=26	=26	=26	=26
!	!	!	!	!	!LO:DY:a
[2.F#\	8r	.	(8cc#\L]	.	] p
.	(8B/L	.	8b\J)	.	.
.	8d/	.	8a/	bra-	.
.	8f#/	.	8a/	-ter-	.
.	8d/	.	8g#/	-skich	.
.	8B/J)	.	8f#/	nie	.
=27	=27	=27	=27	=27	=27
4.F#] 4.FF#/	(8A/L	.	[4.a/	zjed-	.
.	8c#/	.	.	.	.
.	8f#/J)	.	.	.	.
4.D\	(8A/L	.	(8a/L]	.	.
.	8d/	.	8g#/J)	.	.
.	8f#/J)	.	8f#/	-na,	.
=28	=28	=28	=28	=28	=28
*^	*	*	*	*	*
8rA	2.AA\	8r	.	8e/	bo	.
(<8A/L	.	(8c#/L	.	8a/	każ-	.
8E/	.	8e/	.	8b\	-dy	.
8c#/	.	8a/	.	8cc#\L	z to-	.
8E/	.	8g#/	.	8b\J	.	.
8A/J)	.	8f#/J	.	8a/	-wa-	.
=29	=29	=29	=29	=29	=29	=29
*	*	*^	*	*	*	*
*	*	*	*^	*	*	*	*
8rA	2.AA\	(8e/L)	2.e\	4ryy	.	(4b\	-rzy-	.
(<8G#/L	.	8b/	.	.	.	.	.	.
8E/	.	8cc#/J	.	8ryy	.	8cc#\)	.	.
8B/	.	8dd/L	.	24dd\LL	.	4b\	-szy,	.
.	.	.	.	24ee\	.	.	.	.
.	.	.	.	24dd\JJ	.	.	.	.
8E/	.	8cc#/	.	8ryy	.	.	.	.
8G#/J)	.	8dd/J)	.	8ryy	.	8r	.	.
*	*	*	*v	*v	*	*	*	*
*	*	*v	*v	*	*	*	*
!!LO:LB:g=original
=30	=30	=30	=30	=30	=30	=30
8rA	2.AA\	(4.ff#^\	.	8e/L	sł-	.
(<8A/L	.	.	.	8a/J	.	.
8E/	.	.	.	8b\	-szy	.
8c#/	.	4.ee\)	.	8cc#\	jak-	.
8E/	.	.	.	8b\	-by	.
8A/J)	.	.	.	8a/	nie	.
=31	=31	=31	=31	=31	=31	=31
8rA	2.AA\	(8e/L	.	(4b\	sły-	.
(<8G#/L	.	8b/	.	.	.	.
8E/	.	8cc#/J	.	8cc#\)	.	.
8B/	.	8ddT\L	.	4b\	-szy.	.
8E/	.	8cc#\	.	.	.	.
8d/J	.	8b#X\J	.	8r	.	.
*v	*v	*	*	*	*	*
=32	=32	=32	=32	=32	=32
*	*^	*	*	*	*
!	!	!	!	!	!	!LO:DY:a
(<4.A\)	(4.cc#/)	(>8c#\L	.	8cc#\	O	<
.	.	8e\	.	8b#X\	Do-	.
.	.	8a\J)	.	8cc#\	-lo	.
!	!	!	!	!	!	!LO:DY:a
4.E#X\	4.bn/	(>8B\L	.	(4dd\	mo-	[ >
.	.	8d\	.	.	.	.
.	.	8g#\J)	.	8g#/)	-ja	]]
=33	=33	=33	=33	=33	=33	=33
4.F#\	4.a/)	(>8A\L	.	[4.a/	bied-	.
.	.	8c#\	.	.	.	.
.	.	[>8f#\J)	.	.	.	.
!	!	!	!	!	!	!LO:DY:a
4.BB#X/	4.A\	8f#/L]	.	8a/]	.	<
.	.	(8d#X/	.	8f#/	-na!	.
.	.	[>8f#/J)	.	8a/	o	[[
=34	=34	=34	=34	=34	=34	=34
!	!	!	!	!	!	!LO:DY:a
[>4.C#/)	4.A 4.F#\	8f#/L]	.	4cc#\	do-	>
.	.	(8c#/	.	.	.	.
.	.	[>8f#/J)	.	8a/	-la	.
!	!	!	!	!	!	!LO:DY:a
4.C#] 4.CC#/	4.B 4.G#\	8f#/L]	.	8cc#\L	mo-	] pp
.	.	(8c#/	.	16b\L	.	.
.	.	.	.	16a\JJ	.	.
.	.	8e#X/J)	.	8g#/	-ja	.
!!LO:PB:g=original
=35	=35	=35	=35	=35	=35	=35
*^	*	*	*	*	*	*
!LO:N:vis=2.	!	!	!	!	!	!	!
(<8FF#/L	2.FF#\	8f# 8A/	8ryy	mf	4f#/	bied-	.
!	!	!	!	!LO:HP:a	!	!	!
.	.	[8qf#/	.	.	.	.	.
8C#/	.	([4ff# [4f#/]	4ryy	>	.	.	.
8F#/	.	.	.	.	8f#/	-na!	.
8A/	.	8ff#]L 8f#/]	4.f#\	]	4r	.	.
8F#/	.	8ee/	.	<	.	.	.
8C#/J)	.	8dd/J	.	.	8r	.	.
*	*	*v	*v	*	*	*	*
=36	=36	=36	=36	=36	=36	=36
!LO:N:vis=2.	!	!	!	!	!	!
(<8AA/L	2.AA\	8cc#t\L	.	2.r	.	.
8C#/	.	8b\	.	.	.	.
8F#/	.	8cc#\J	[	.	.	.
8c#/	.	8ee\L	>	.	.	.
8F#/	.	8dd\	.	.	.	.
8C#/J)	.	8cc#\J	]]	.	.	.
=37	=37	=37	=37	=37	=37	=37
!LO:N:vis=2.	!	!	!	!	!	!
(<8GG#/L	2.GG#\	4.cc#^\	.	2.r	.	.
8D/	.	.	.	.	.	.
8F#/	.	.	.	.	.	.
8B/	.	4b\	.	.	.	.
8D/	.	.	.	.	.	.
8F#/J)	.	8a/	.	.	.	.
=38	=38	=38	=38	=38	=38	=38
(>8E#X/L	2.C#\	8g#/L	<	2.r	.	.
8F#/	.	8a/	.	.	.	.
8G#/	.	8b/	.	.	.	.
8A/	.	8cc#/	[ >	.	.	.
8B/	.	8g#/	.	.	.	.
8c#/J)	.	8a/J)	]]	.	.	.
*v	*v	*	*	*	*	*
=39	=39	=39	=39	=39	=39
!	!	!LO:DY:b	!	!	!
[2.FF#\	8r	pp	2.r	.	.
.	(8A</L	.	.	.	.
.	8f#/	.	.	.	.
.	8c#/	.	.	.	.
.	8A</	.	.	.	.
.	8F#</J	.	.	.	.
!!LO:LB:g=original
=40	=40	=40	=40	=40	=40
4FF#\]	8C#</L	.	2.r	.	.
.	8A</	.	.	.	.
8r	8F#</	.	.	.	.
4r	8C#</	.	.	.	.
.	8AA</	.	.	.	.
8rCC	8GG#</J)	.	.	.	.
=41	=41	=41	=41	=41	=41
*^	*^	*	*	*	*
*	*	*	*^	*	*	*	*
8FF#/L	(4.FF#\	(4cc#/	2.c#\	4ryy	.	4cc#\	Kie-	.
8G#/	.	.	.	.	.	.	.	.
8C#/J	.	8b/	.	8ryy	.	8b\	-dy	.
8FF#/L	4.FF#\	8a/L	.	24a\LL	.	8a/	cza-	.
.	.	.	.	24b\	.	.	.	.
.	.	.	.	24a\JJ	.	.	.	.
8A/	.	8g#/	.	8ryy	.	8g#/	-sem	.
8C#/J	.	8f#/J	.	8ryy	.	8f#/	się	.
*	*	*	*v	*v	*	*	*	*
=42	=42	=42	=42	=42	=42	=42	=42
8FF#/L	4.FF#\	4.f#^/	2.G#\	.	4.f#/	zda-	.
8B/	.	.	.	.	.	.	.
8Dn/J	.	.	.	.	.	.	.
8FF#/L	4.FF#\	4.e#X/)	.	.	4e#X/	-rza,	.
8B/	.	.	.	.	.	.	.
8C#/J	.	.	.	.	8r	.	.
=43	=43	=43	=43	=43	=43	=43	=43
8FF#/L	4.FF#\	(8enT/L	4.Gn\	.	8en/L	że	.
8B/	.	8d/	.	.	8d/J	.	.
8C#/J	.	8e/J	.	.	8e/	u	.
8FF#/L	4.FF#\	4f#/	8F#\	.	4f#/	stop	.
8A#X/	.	.	8r	.	.	.	.
8F#/J	.	8c#/	8r	.	8c#/	oł-	.
*	*	*v	*v	*	*	*	*
!!LO:LB:g=original
=44	=44	=44	=44	=44	=44	=44
8BB/L	4.BB\	4.e 4.c#^/	.	4.e/	-ta-	.
8A#X/	.	.	.	.	.	.
8F#/J	.	.	.	.	.	.
8BB/L	4.BB\	4.d/)	.	4d/	-rza	.
8B/	.	.	.	.	.	.
8F#/J)	.	.	.	8d/	ku	.
*v	*v	*	*	*	*	*
=45	=45	=45	=45	=45	=45
[>2.C#/	8r	.	8c#/L	Bo-	.
.	(8A/L	.	8f#/J	.	.
.	8c#/	.	8g#/	-gu	.
.	8f#/	.	8a/L	głos	.
.	8c#/	.	8g#/J	.	.
.	8A/J)	.	8f#/	wy-	.
=46	=46	=46	=46	=46	=46
2.C#] 2.CC#/	8r	.	(4g#/	-tę-	.
.	(8B/L	.	.	.	.
.	8c#/	.	8a/)	.	.
.	8e#X/	.	4g#/	-żę,	.
.	8c#/	.	.	.	.
.	8B/J)	.	8r	.	.
=47	=47	=47	=47	=47	=47
(4.C#/	8r	.	8c#/	Ksiądz	.
.	(8A/L	.	8f#/	na	.
.	8c#/	.	8g#/	mnie	.
4.BB#X/	8f#/	.	(8a/L	pa-	.
.	8d#X/	.	8g#/J)	.	.
.	8A/J)	.	8f#/	-trzy	.
!!LO:LB:g=original
=48	=48	=48	=48	=48	=48
2.C#/)	8r	.	(4g#/	gniew-	.
.	(8G#/L	.	.	.	.
.	.	.	8qb/	.	.
.	8c#/	.	8a/)	.	.
.	8en/	.	8g#/	-no,	.
.	8c#/	.	8r	.	.
.	8G#/J)	.	8g#/	że	.
=49	=49	=49	=49	=49	=49
*^	*^	*	*	*	*
8EEn/L	(4.EE\	(4.cc#^/	4.g# 4.c#\	.	4cc#\	mu-	.
8G#/	.	.	.	.	.	.	.
8C#/J	.	.	.	.	8b\	-zy-	.
8FF#/L	4.FF#\	4a/	4.c#\	.	8a/L	-kę	.
8A/	.	.	.	.	8g#/J	.	.
8C#/J	.	8f#/)	.	.	8f#/	cer-	.
*	*	*v	*v	*	*	*	*
=50	=50	=50	=50	=50	=50	=50
8GG#/L	4.GG#\	(>4.f# 4.d/	.	4.f#/	-kiew-	.
8B/	.	.	.	.	.	.
8E/J	.	.	.	.	.	.
8AA/L	4.AA\	4en/)	.	4en/	-ną	.
8c#/	.	.	.	.	.	.
8E/J	.	8r	.	8r	.	.
=51	=51	=51	=51	=51	=51	=51
*	*	*^	*	*	*	*
8GGn/L	4.GG\	(4.e/	4.c#\	.	8e/L	smut-	.
8B/	.	.	.	.	8d/J	.	.
8E/J	.	.	.	.	8e/	-nym	.
8FF#/L	4.FF#\	4f#/	4.A#X\	.	8f#/	to-	.
8F#/	.	.	.	.	8B#X/	-nem	.
[<8E/J	.	8c#/	.	.	8c#/	mi-	.
*	*	*v	*v	*	*	*	*
!!LO:PB:g=original
=52	=52	=52	=52	=52	=52	=52
8E/L]	2.BB\)	4.e 4.A#X/	.	4.e/	-trę-	.
8C#/	.	.	.	.	.	.
[<8F#/J	.	.	.	.	.	.
8F#/L]	.	4d 4B/)	.	4.d/	-żę.	.
8D/	.	.	.	.	.	.
8F#/J	.	8r	.	.	.	.
*v	*v	*	*	*	*	*
=53	=53	=53	=53	=53	=53
*	*^	*	*	*	*
2.D 2.GGn/	(8B/L	4.B\	.	8d/L	Kie-	.
.	8d/	.	.	8gn/J	.	.
.	8gn/J	.	.	8a/	-dy	.
.	8B/L	4.B\	.	8b\	pój-	.
.	8d/	.	.	8a/	-dę	.
.	8g/J	.	.	8g/	we	.
=54	=54	=54	=54	=54	=54	=54
2.D 2.GGn/	8cn/L	4.c\	.	(4a/	świę-	.
.	8d/	.	.	.	.	.
.	8f#/J	.	.	8b/)	.	.
.	8c/L	4.c\	.	4a/	-ta,	.
.	8d/	.	.	.	.	.
.	8f#/J)	.	.	8r	.	.
=55	=55	=55	=55	=55	=55	=55
(<4.Gn\ 4.GGn\	(8B/L	4.B\	<	8d/L	gdzie	.
.	8d/	.	.	8gn/J	.	<
.	8gn/J	.	.	8a/	się	.
4.F# 4.FF#/	8d/L	4.d\	.	8b\	ba-	.
.	8g/	.	.	8a#X/	-wią	.
.	8b/J	.	[[	8b\	dziew-	[[
*	*v	*v	*	*	*	*
!!LO:LB:g=original
=56	=56	=56	=56	=56	=56
!	!	!	!	!	!LO:DY:a
8E#XL 8EE#X/	(2.dd 2.b 2.g#X (2.d/	sf > ]]	2.dd\	-czę-	>
8GG#X/	.	.	.	.	.
8BB/	.	.	.	.	.
8D/	.	.	.	.	.
8E#/	.	.	.	.	.
8G#/J	.	.	.	.	.
=57	=57	=57	=57	=57	=57
4B 4E#X 4C#\)	4cc# 4g# 4c#/)))	.	4cc#\	-ta,	]
8r	8r	.	8r	.	.
4r	4r	.	4r	.	.
!	!LO:TX:i:a:t=dolcissimo	!LO:DY:b	!	!	!
8r	(8cc#\	pp	8r	.	.
=58	=58	=58	=58	=58	=58
*^	*	*	*	*	*
8r	(2.F#\	8b#X/L	.	2.r	.	.
(<8A/L	.	8a/	.	.	.	.
8B#X/	.	8g#/J	.	.	.	.
8d#X/	.	8f#/L	.	.	.	.
8B#/	.	8e#X/	.	.	.	.
8A/J)	.	8f#/J	.	.	.	.
*v	*v	*	*	*	*	*
=59	=59	=59	=59	=59	=59
*	*^	*	*	*	*
4FF#/)	4.a^/	8rA<	.	4r	.	.
!	!LO:TX:i:b:t=m.d.	!	!	!	!	!
.	.	(<8A</L	.	.	.	.
8r	.	8c#</J	.	8r	.	.
4r	4.f#/)	8f#</L	.	4r	.	.
.	.	8c#</	.	.	.	.
8r	.	8A</J)	.	[8cc#^\	mło-	.
*	*v	*v	*	*	*	*
=60	=60	=60	=60	=60	=60
[2.F#\	8r	.	8cc#\]	.	.
!	!	!	!	!	!LO:DY:a
.	(8B/L	.	8b\	-dzież	p
.	8d/	.	8a/	i	.
.	8f#/	.	8a/L	star-	.
.	8d/	.	8g#/J	.	.
.	8B/J)	.	8f#/	-cy	.
!!LO:LB:g=original
=61	=61	=61	=61	=61	=61
4.F#] 4.FF#\	(8A/L	.	[4.a/	w do-	.
.	8c#/	.	.	.	.
.	8f#/J)	.	.	.	.
4.D\	(8A/L	.	(8a/L]	.	.
.	8d/	.	8g#/J)	.	.
.	8f#/J)	.	8f#/	-mu,	.
=62	=62	=62	=62	=62	=62
*^	*	*	*	*	*
8rA	2.AA\	8r	.	8e/	klnę	.
(<8A/L	.	(8c#/L	.	8a/	że	.
8E/	.	8e/	.	8b\	mi	.
8c#/	.	8a/	.	8cc#\L	w pier-	.
8E/	.	8g#/	.	8b\J	.	.
8A/J)	.	8f#/J	.	8a/	-si	.
=63	=63	=63	=63	=63	=63	=63
*	*	*^	*	*	*	*
*	*	*	*^	*	*	*	*
8rA	2.AA\	(8e/L)	2.e\	4ryy	.	(4b\	wro-	.
(<8G#/L	.	8b/	.	.	.	.	.	.
8E/	.	8cc#/J	.	8ryy	.	8cc#\)	.	.
8B/	.	8dd/L	.	24dd\LL	.	4b\	-sło	.
.	.	.	.	24ee\	.	.	.	.
.	.	.	.	24dd\JJ	.	.	.	.
8E/	.	8cc#/	.	8ryy	.	.	.	.
8G#/J)	.	8dd/J)	.	8ryy	.	8r	.	.
*	*	*	*v	*v	*	*	*	*
*	*	*v	*v	*	*	*	*
=64	=64	=64	=64	=64	=64	=64
8rA	2.AA\	(4.ff#^\	.	8e/L	pieś-	.
(<8A/L	.	.	.	8a/J	.	.
8E/	.	.	.	8b\	-nio-	.
8c#/	.	4.ee\)	.	8cc#\	-twór-	.
8E/	.	.	.	8b\	-cze	.
8A/J)	.	.	.	8a/	rze-	.
!!LO:LB:g=original
=65	=65	=65	=65	=65	=65	=65
8rA	2.AA\	(8e/L	.	(4b\	-mio-	.
(<8G#/L	.	8b/	.	.	.	.
8E/	.	8cc#/J	.	8cc#\)	.	.
8B/	.	8ddT\L	.	8b\	-sło,	.
8E/	.	8cc#\	.	8r	.	.
8d/J)	.	8b#X\J	.	8b#X\	lub	.
*v	*v	*	*	*	*	*
=66	=66	=66	=66	=66	=66
*	*^	*	*	*	*
(<4.A\	(4.cc#/)	8c#\L	.	(8cc#\L	pła-	<
.	.	8e\	.	8b#X\J)	.	.
.	.	8a\J	.	8cc#\	-czę	.
4.E#X\	4.bn/	8B\L	.	4dd\	po	[ >
.	.	8d\	.	.	.	.
.	.	8g#\J	.	8g#/	kry-	]]
=67	=67	=67	=67	=67	=67	=67
4.F#\	4.a/)	8A\L	.	[4.a/	-jo-	.
.	.	8c#\	.	.	.	.
.	.	[>8f#\J	.	.	.	.
4.BB#X/	4.A\	8f#/L]	.	8a/]	.	.
.	.	(8d#X/	.	8f#/	-mu,	<
.	.	[>8f#/J)	.	8a/	lub	[[
=68	=68	=68	=68	=68	=68	=68
[>4.C#/	4.A 4.F#\	8f#/L]	.	(4cc#\	pła-	>
.	.	(8c#/	.	.	.	.
.	.	[>8f#/J)	.	8a/)	-czę	]
!	!	!	!	!	!	!LO:DY:a
4.C#] 4.CC#/)	4.B 4.G#\	8f#/L]	.	8cc#\L	po	pp
.	.	(8c#/	.	16b\L	.	.
.	.	.	.	16a\JJ	.	.
.	.	8e#X/J)	.	8g#/	kry-	.
*	*v	*v	*	*	*	*
!!LO:PB:g=original
=69	=69	=69	=69	=69	=69
*^	*	*	*	*	*
!LO:N:vis=2.	!	!	!	!	!	!
(<8FF#/L	(2.FF#\	8f# 8A/	.	[4f#/	-jo-	.
.	.	[8qf#/	.	.	.	.
8C#/	.	([4ff#^> [4f#/]	.	.	.	.
8F#/	.	.	.	8f#/]	-mu!	.
8A/	.	8ff#]L 8f#/]	.	4r	.	.
8F#/	.	8ee/	.	.	.	.
8C#/J)	.	8dd/J	.	8r	.	.
=70	=70	=70	=70	=70	=70	=70
!LO:N:vis=2.	!	!	!	!	!	!
(<8AA/L	2.AA\	8cc#t\L	.	2.r	.	.
8C#/	.	8b\	.	.	.	.
8F#/	.	8cc#\J	.	.	.	.
8c#/	.	8ee\L	.	.	.	.
8F#/	.	8dd\	.	.	.	.
8C#/J)	.	8cc#\J)	.	.	.	.
=71	=71	=71	=71	=71	=71	=71
!LO:N:vis=2.	!	!	!	!	!	!
(<8D#X/L	2.D#\	(4.cc#\	.	2.r	.	.
8F#/	.	.	.	.	.	.
8G#/	.	.	.	.	.	.
8A/	.	8b#X\)	.	.	.	.
8G#/	.	8r	.	.	.	.
8F#/J)	.	(8f#/	.	.	.	.
=72	=72	=72	=72	=72	=72	=72
!LO:N:vis=2.	!	!	!	!	!	!
(<8D/L	2.Dn\	4bn^\	.	2.r	.	.
8E#X/	.	.	.	.	.	.
8F#/	.	8a/	.	.	.	.
8B/	.	8g#/L	.	.	.	.
8F#/	.	8a/	.	.	.	.
8G#/J)	.	8f#/J	.	.	.	.
*v	*v	*	*	*	*	*
=73	=73	=73	=73	=73	=73
2.C#/)	8e#X'/)	.	2.r	.	.
.	(8cc#L 8c#^/	.	.	.	.
.	8e#/	.	.	.	.
.	8g#/	.	.	.	.
.	8e#/	.	.	.	.
.	8c#/J)	.	.	.	.
!!LO:LB:g=original
=74	=74	=74	=74	=74	=74
2.D\ 2.DD\	8r	.	4f#/	Dziew-	.
.	(<8F#</L	.	.	.	.
!	!LO:TX:i:a:t=ac-ce-le-ran-do:ext2=cd	!	!LO:TX:i:a:t=ac-ce-le-ran-do:ext2=cd:dur=4hqe	!	!
.	8cn/	.	8g#/	-czę	.
.	8f#/	.	8a/	słu-	.
.	8c/	.	8g#/	-cha	.
.	8F#</J)	.	8a/	lir-	.
=75	=75	=75	=75	=75	=75
2.D#X 2.DD#X/	8r	.	[4.b\	-ni-	.
!	!	!LO:HP:b:t=cre-scen-do:ext2=cd	!	!	!
.	(8B/L	<	.	.	.
.	8f#/	.	.	.	.
.	8a/	.	4b\]	.	.
.	8f#/	.	.	.	.
.	8B/J)	.	8an/	-ka	.
=76	=76	=76	=76	=76	=76
2.E 2.EE\	8r	.	4g#/	a-	.
.	(8G#</L	.	.	.	.
.	8dn/	.	8a/	-le	.
.	8g#/	.	8b\	du-	.
.	8d/	.	8a/	-szę	.
.	8G#</J)	.	8b\	za-	.
=77	=77	=77	=77	=77	=77
2.E#X 2.EE#X/	8r	.	[4.cc#\	-my-	.
.	(8c#/L	.	.	.	.
.	8g#/	.	.	.	.
.	8b/	.	4cc#\]	.	.
.	8g#/	.	.	.	.
.	8c#/J)	.	8b\	-ka,	.
!!LO:LB:g=original
=78	=78	=78	=78	=78	=78
!	!LO:TX:B:a:t=Presto	!	!LO:TX:B:a:t=Presto	!	!
4.F# 4.FF#/	8r	.	4.a/	mnie	.
.	(8aL 8f#/	.	.	.	.
.	8c#/J)	.	.	.	.
4.F##X 4.FF##X/	8r	[	4.cc#\	się	.
.	(8cc#L 8e/	.	.	.	.
.	8c#/J)	.	.	.	.
=79	=79	=79	=79	=79	=79
4.G# 4.GG#/	8r	.	4.cc#\	ser-	.
.	(8cc#L 8e/	.	.	.	.
.	8c#/J)	.	.	.	.
4A 4AA\	8r	.	4dd#X\	-ce	.
.	(8f#L 8e/	.	.	.	.
8A#X 8AA#X\	8c#/J)	.	8cc#\	roz-	.
=80	=80	=80	=80	=80	=80
*	*^	*	*	*	*
!	!LO:TX:i:b:t=molto ri-te-nu-to:ext=s:ext2=cd:dur=2hqe	!	!	!LO:TX:i:a:t=molto ri-te-nu-to:ext=s:ext2=cd:dur=2hqe	!	!
8B 8BB\	8r	8ryy	.	[2.b\	-pa-	.
8r	(<8d#X/L	4B\	.	.	.	.
8r	8b/J)	.	.	.	.	.
4BB 4BBB/	8r	8ryy	.	.	.	.
.	(<8e/L	4cn\	.	.	.	.
8r	8b/J)	.	.	.	.	.
=81	=81	=81	=81	=81	=81	=81
4BB 4BBB/	8r	8ryy	.	4.b\_	.	.
.	(<8e#X/L	4c#X\	.	.	.	.
8r	8b/J)	.	.	.	.	.
(8BBL 8BBB\	8r	8ryy	.	4b\]	-da.	.
8B\	(8f#/L	8d\L	.	.	.	.
8A\J)	8b/J)	8d#X\J	.	8r	.	.
*	*v	*v	*	*	*	*
!!LO:LB:g=original
=82	=82	=82	=82	=82	=82
!	!LO:TX:i:a:t=lento	!LO:DY:b	!LO:TX:B:a:t=a tempo	!	!
8G# 8GG#/	(8b\L	f	8b\	Ja	.
(8G#\L	8cc#\	.	8cc#\	pieś-	.
!	!	!	!	!	!LO:DY:t=lento e f
8B\	8dd#X\J	.	8dd#X\	-nią	f
8e\	4ee\	.	4ee\	Ser-	.
8B\	.	.	.	.	.
8G#\J)	8g#/	.	8g#/	-ca	.
=83	=83	=83	=83	=83	=83
8F# 8FF#/	(4.b\	.	4.b\	pro-	.
(8F#\L	.	.	.	.	.
8A\J	.	.	.	.	.
8d#X\L	4a/))	.	8a/	-szę!	.
8A\	.	.	8r	.	.
8F#\J)	8r	.	8a/	ja	.
=84	=84	=84	=84	=84	=84
!	!	!LO:DY:a	!	!	!LO:DY:a:t=meno f
8E 8EE/	(8g#/L	mf	8g#/L	pieś-	f
(8E\L	8a/	.	8a/J	.	.
8G#\J	8b/J	.	8b\	-nią	.
8c#\L	4cc#\	.	4cc#\	ser-	.
8G#\	.	.	.	.	.
8E\J)	8e/	.	8e/	-ca	.
=85	=85	=85	=85	=85	=85
(8D#X 8DD#X/	(4.g#/	.	4.g#/	pro-	.
8A\L	.	.	.	.	.
8c#\J)	.	.	.	.	.
(8GG#\L	4f#/))	.	4f#/	-szę:	.
8B#X\	.	.	.	.	.
8G#\J)	8r	.	8r	.	.
!!LO:PB:g=original
=86||	=86||	=86||	=86||	=86||	=86||
!	!LO:TX:i:a:t=Vivace	!	!LO:TX:i:a:t=Vivace, parlando	!	!
8C#\	8e 8c# 8G#</	sf	8e/	o-	.
8r	8r	.	8e/	-na	.
8r	8r	.	8r	.	.
8BB\	8e#X 8c# 8G#</	sf	8e#X/	rzu-	.
8r	8r	.	8e#/	-ci	.
8r	8r	.	8e#/	trzy	.
=87	=87	=87	=87	=87	=87
8AA\	8f# 8c# 8F#</	sf	4.f#/	gro-	.
8r	8r	.	.	.	.
8r	8r	.	.	.	.
!	!	!LO:DY:b	!	!	!
8GG#\	8g# 8e#X 8B</	sf	8g#/	-sze,	.
8r	8r	.	8r	.	.
8r	8r	.	8g#/	i	.
=88	=88	=88	=88	=88	=88
*Xtuplet	*	*	*	*	*
!	!LO:TX:i:b:t=riten.	!	!LO:TX:i:a:t=riten.	!	!
!LO:N:vis=8%3	!LO:N:vis=8%3	!	!LO:N:vis=8%3	!	!
!	!	!	!LO:TUP:a:problem:klamra łukowa	!	!
16%3F# 16%3FF#\	16%3a 16%3f# 16%3A<^>/	.	16%3a^>/	z in-	.
!LO:N:vis=8%3	!LO:N:vis=8%3	!	!LO:N:vis=8%3	!	!
16%3E 16%3EE\	16%3a#X 16%3f# 16%3c# 16%3A#X<^>/	.	16%3a#X^>/	-nym	.
!LO:N:vis=8%3	!LO:N:vis=8%3	!	!LO:N:vis=8%3	!	!
16%3D#X 16%3DD#X\	16%3b 16%3f# 16%3B<^>/	.	16%3b^\	plą-	.
!LO:N:vis=8%3	!LO:N:vis=8%3	!	!LO:N:vis=8%3	!	!
16%3Dn 16%3DDn\	16%3b#X 16%3f# 16%3B#X<^>/	.	16%3b#X^\	-sa	.
*tuplet	*	*	*	*	*
=89||	=89||	=89||	=89||	=89||	=89||
*M4/4	*M4/4	*	*M4/4	*	*
*met(c)	*met(c)	*	*met(c)	*	*
*	*^	*	*	*	*
!	!LO:TX:B:a:t=Lento.	!	!	!LO:TX:B:a:t=Lento.	!	!
8C# 8CC#/	(<4cc#/	8e#X 8c#\	.	(4.cc#^>\	ra-	.
8r	.	8r	.	.	.	.
!	!	!	!LO:DY:b=2	!	!	!
8c#:: 8B:: 8G#:: 8E#X::\	8gg#:: 8cc#:: 8b:: 8g#'::\	4ryy	sff	.	.	.
8r	16b/LL	.	>	16b/LL	.	.
.	16cc#/JJ	.	.	16a/JJ)	.	.
2r	16dd/LL	2ryy	.	8g#/	-da!	.
.	16b/	.	.	.	.	.
.	16g#/	.	.	8r	.	.
.	16e#X/JJ	.	.	.	.	.
.	16dn/LL	.	.	4r	.	.
.	16B/	.	]	.	.	.
.	16G#/	.	.	.	.	.
.	16F#/JJ	.	.	.	.	.
*	*v	*v	*	*	*	*
!!LO:LB:g=original
=90	=90	=90	=90	=90	=90
1r	4E#X</	p	4r	.	p
!	!	!	!LO:TX:i:a:t=Recit.	!	!
.	8c#</)	.	8e#X/	Sta-	.
.	8r	.	8e#/	-rzec	.
.	2r	.	4e#/	west-	.
.	.	.	8f#/	-chnie	.
.	.	.	16r	.	.
.	.	.	16g#/	i	.
=91	=91	=91	=91	=91	=91
1r	1r	.	4g#/	po-	.
.	.	.	8c#/	-wie:	.
.	.	.	8r	.	.
.	.	.	2r	.	.
=92||	=92||	=92||	=92||	=92||	=92||
*k[f#c#g#d#a#e#]	*k[f#c#g#d#a#e#]	*	*k[f#c#g#d#a#e#]	*	*
*M2/2	*M2/2	*	*M2/2	*	*
*met(c|)	*met(c|)	*	*met(c|)	*	*
*	*^	*	*	*	*
!	!LO:TX:B:a:t=Andantino.	!	!LO:DY:b	!LO:TX:B:a:t=Andantino.	!	!LO:DY:a
(4.F#\	(>4.a#/	2c#</	p	4.f#/	"Za	p
!	!LO:TX:i:b:t=molto simplice	!	!	!	!	!
8G#\	8b/	.	.	8g#/	mych	.
4A#\	4cc#/	2f#\	.	4a#/	cza-	.
8G#\L	8b/L	.	.	8g#/	-sów	.
8A#\J	8cc#/J	.	.	8a#/	graj-	.
=93	=93	=93	=93	=93	=93	=93
4B\	4dd#/	2f#\	.	2b\	-ko-	.
4d#\	4ff#/	.	.	.	.	.
2f#\)	2cc#/)	2a#\	.	4a#/	-wie	.
.	.	.	.	4r	.	.
!!LO:LB:g=original
=94	=94	=94	=94	=94	=94	=94
!	!	!LO:TX:t=P:problem:błędne wyświetlanie łuku	!	!	!	!
(<4.G#\	(>4.b/	(<2d#<\	.	4.g#/	toć	.
8A#\	8a#/	.	.	8f#/	to	.
8c#\L	4g#/	4e#\)	.	4e#/	gra-	.
8B\	.	.	.	.	.	.
8A#\	8f#/L	4r	.	8f#/	-li	.
8G#\J	8g#/J	.	.	8g#/	dal	.
=95	=95	=95	=95	=95	=95	=95
*^	*	*	*	*	*	*
2c#/	4F#\	4a#/	4ryy	.	(4f#/	du-	.
.	4A#\	4f#/	4ryy	.	4a#/)	.	.
[2c#/)	2c#\	2g#/)	2e#\	.	4c#/	-szy!	.
.	.	.	.	.	4r	.	.
*	*	*v	*v	*	*	*	*
=96	=96	=96	=96	=96	=96	=96
2c#/]	(4.F#\	(>4.a#/	.	4.f#/	dzi-	.
.	8G#\	8b/	.	8g#/	-siaj	.
2f#>\	8B\L	8dd#/L	.	8b/L	i-	.
.	8A#\	8cc#/	.	8a#/J	.	.
.	8G#\	8b/	.	8g#/	-dzie	.
.	8A#\J	8cc#/J	.	8a#/	w za-	.
*v	*v	*	*	*	*	*
=97	=97	=97	=97	=97	=97
*	*^	*	*	*	*
4B\	4dd#/	1f#	.	2b\	-wo-	.
4F#\	4ff#/	.	.	.	.	.
2A#\)	2cc#/)	.	.	4a#/	-dy,	.
.	.	.	.	4r	.	.
!!LO:LB:g=original
=98	=98	=98	=98	=98	=98	=98
*^	*	*	*	*	*	*
2.d#/	(4.G#\	&(4.b#/	(<1f#	.	4.g#/	ja-	.
.	8A#\	8a#/	.	.	8a#/	-kiś	.
.	4B#X\	4g#/	.	.	4b#X\	mło-	.
8ryy	8c#\L	8a#/L	.	.	8a#/	-dzik	.
8ryy	8d#\J	8b#/J	.	.	8b#\	bez	.
*v	*v	*	*	*	*	*	*
*	*v	*v	*	*	*	*
=99	=99	=99	=99	=99	=99
4c#\	4cc# 4e#\)<	.	2cc#\	bro-	.
4e#\)	4ee#\&)	.	.	.	.
(4G#\	(4g#/	.	2g#/	-dy;	.
4c#\)	4cc#\)	.	.	.	.
=100	=100	=100	=100	=100	=100
*^	*^	*	*	*	*
4E#\	2ryy	4e#'/	2ryy	.	4e#'/	trą-	.
!	!	!	!	!	!LO:TX:i:a:t=scherzando	!	!
8.G#\L	.	8.g#L 8.e#/	.	.	8.g#'/	-bić	.
16G#'\Jk	.	16g#Jk 16e#'/	.	.	16g#'/	mu	.
4GG#'/	4ryy	4f# 4d#'/	4ryy	.	4f#'/	wróg	.
8.F#/L	4GG#'\	8.d#/L	4B#X\	.	4d#/	pa-	.
16G#/Jk	.	16e#/Jk	.	.	.	.	.
*v	*v	*	*	*	*	*	*
*	*v	*v	*	*	*	*
=101	=101	=101	=101	=101	=101
(2F# 2GG#\	(>2d# 2B#X/	>	2d#/	-stu-	.
4E# 4C#\)	4c#/)	]	4c#/	-szy."	.
4r	4r	.	4r	.	.
!!LO:PB:g=original
=102	=102	=102	=102	=102	=102
!	!	!LO:DY:b	!	!	!
(2c#^<\	(2cc#^\	p	1r	.	.
2dn^<\	2ddn^\	.	.	.	.
=103	=103	=103	=103	=103	=103
4c#\	4cc#\	.	1r	.	.
8B\L	8b/L	.	.	.	.
8An\J	8an/J	.	.	.	.
4G#\	4g#/	.	.	.	.
4F#\	4f#/	.	.	.	.
=104	=104	=104	=104	=104	=104
4E#X\	4e#X/	.	1r	.	.
4F#\	4f#/	.	.	.	.
4.A#\	4.a#/	.	.	.	.
8G#\)	8g#/)	.	.	.	.
*kcancel	*kcancel	*	*kcancel	*	*
=105||	=105||	=105||	=105||	=105||	=105||
*k[f#c#g#]	*k[f#c#g#]	*	*k[f#c#g#]	*	*
*M6/8	*M6/8	*	*M6/8	*	*
!LO:TX:t=P:problem:odwrotna kolejność krzyżyków i kasowników	!LO:TX:t=P:problem:odwrotna kolejność krzyżyków i kasowników	!	!LO:TX:t=P:problem:odwrotna kolejność krzyżyków i kasowników	!	!
!	!LO:TX:B:a:t=Tempo Io.	!LO:DY:b	!LO:TX:B:a:t=Tempo Io.	!	!
2.C#/	(16c#/LL	p	2.r	.	.
!	!LO:TX:i:b:t=murmurando	!	!	!	!
.	16d/	.	.	.	.
.	16c#/	.	.	.	.
!	!LO:TX:i:a:t=un poco piu animato	!	!	!	!
!	!	!	!LO:TX:i:a:t=un poco più animato	!	!
.	16d/	.	.	.	.
.	16c#/	.	.	.	.
.	16d/JJ	.	.	.	.
.	16B#X/LL	.	.	.	.
.	16c#/	.	.	.	.
.	16B#/	.	.	.	.
.	16c#/	.	.	.	.
.	16B#/	.	.	.	.
.	16c#/JJ)	.	.	.	.
!!LO:LB:g=original
=106	=106	=106	=106	=106	=106
!	!	!	!LO:TX:i:a:t=dolce	!	!LO:DY:a
2.CC#/	(>16Bn/LL	.	4cc#\	I	p
.	16c#/	.	.	.	.
.	16g#/	.	.	.	.
.	16c#/	.	.	.	.
.	16B/	.	8b\	tak	.
.	16c#/JJ	.	.	.	.
.	16f#/LL	.	8a/	wszys-	.
.	16c#/	.	.	.	.
.	16A/	.	8g#/	-cy	.
.	16c#/	.	.	.	.
.	16f#/	.	8f#/	ze-	.
.	16c#/JJ	.	.	.	.
=107	=107	=107	=107	=107	=107
2.CC#/	16A/LL	.	4.f#/	-bra-	.
.	16d/	.	.	.	.
.	16f#/	.	.	.	.
.	16d/	.	.	.	.
.	16A/	.	.	.	.
.	16d/JJ	.	.	.	.
.	16e#X/LL	.	8e#X/	-ni,	.
.	16c#/	.	.	.	.
.	16G#/	.	8r	.	.
.	16c#/	.	.	.	.
.	16e#/	.	8r	.	.
.	16c#/JJ	.	.	.	.
=108	=108	=108	=108	=108	=108
4.CC#\	16Gn</LL	.	8en/L	je-	.
.	16B</	.	.	.	.
.	16en/	.	8d/J	.	.
.	16B</	.	.	.	.
.	16G</	.	8e/	-den	.
.	16B</JJ	.	.	.	.
4.FF#\	16e/LL	.	8f#/	chwa-	.
.	16A#X</	.	.	.	.
.	16F#</	.	8c#/	-li,	.
.	16A#</	.	.	.	.
.	16e/	.	8e/	ten	.
.	16A#</JJ	.	.	.	.
!!LO:LB:g=original
=109	=109	=109	=109	=109	=109
2.BBB\	16F#</LL	.	4.e/	ga-	.
.	16c#/	.	.	.	.
.	16e/	.	.	.	.
.	16c#/	.	.	.	.
.	16F#</	.	.	.	.
.	16c#/JJ	.	.	.	.
.	16d/LL	.	4d/	-ni.	.
.	16B</	.	.	.	.
.	16F#</	.	.	.	.
.	16B</	.	.	.	.
.	16d/	.	8r	.	.
.	16B</JJ	.	.	.	.
=110	=110	=110	=110	=110	=110
2.CC#\	16A</LL	.	8c#/L	Kła-	.
.	16c#/	.	.	.	.
.	16f#/	.	8f#/J	.	.
.	16c#/	.	.	.	.
.	16A</	.	8g#/	-niam,	.
.	16c#/JJ	.	.	.	.
.	16f#/LL	.	8a/	kła-	.
.	16B#X</	.	.	.	.
.	16A</	.	8g#/	-niam	.
.	16B#</	.	.	.	.
.	16f#/	.	8f#/	u-	.
.	16B#</JJ	.	.	.	.
=111	=111	=111	=111	=111	=111
*^	*	*	*	*	*
!LO:N:vis=2.	!	!	!	!	!	!
8CC#/L	[2.CC#\	16G#</LL	.	(4g#/	-przej-	.
.	.	16c#</	.	.	.	.
8GG#/	.	16f#/	.	.	.	.
.	.	16c#</	.	.	.	.
8AA/J	.	16G#</	.	8a/)	.	.
.	.	16c#</JJ	.	.	.	.
8BB/L	.	16e#X/LL	.	4g#/	-mie,	.
.	.	16c#</	.	.	.	.
8AA/	.	16G#</	.	.	.	.
.	.	16c#</	.	.	.	.
8GG#/J	.	16e#/	.	8r	.	.
.	.	16c#</JJ)	.	.	.	.
*v	*v	*	*	*	*	*
!!LO:LB:g=original
=112	=112	=112	=112	=112	=112
4.C# 4.CC#\]	(>16A</LL	.	8c#/L	kła-	.
.	16c#</	.	.	.	.
.	16f#/	.	8f#/J	.	.
.	16c#</	.	.	.	.
.	16A</	.	8g#/	-niam,	.
.	16c#</JJ	.	.	.	.
.	.	.	(8qb/	.	.
4.BB 4.BBB\	16f#/LL	.	8a/)	kła-	.
.	16d#X/	.	.	.	.
.	16A</	.	8g#/	-niam	.
.	16d#/	.	.	.	.
.	16f#/	.	8f#/	u-	.
.	16d#/JJ	.	.	.	.
=113	=113	=113	=113	=113	=113
*^	*	*	*	*	*
!LO:TX:i:a:t=P:problem:mixed beam	!	!	!	!	!	!
!LO:N:vis=2.	!	!	!	!	!	!
(<8EE/L	2.EE\	16G#</LL	.	(4g#/	-przej-	.
.	.	16e/	.	.	.	.
8GG#\	.	16g#X/	.	.	.	.
.	.	16e/	.	.	.	.
8AA\J	.	16G#</	.	8a/)	.	.
.	.	16e/JJ	.	.	.	.
8BB\L	.	16g#/LL	.	4g#/	-mie!	.
.	.	16e/	.	.	.	.
8AA\	.	16G#</	.	.	.	.
.	.	16e/	.	.	.	.
8GG#\J	.	16g#/	.	8r	.	.
.	.	16e/JJ)	.	.	.	.
*v	*v	*	*	*	*	*
=114	=114	=114	=114	=114	=114
!	!	!	!	!	!LO:DY:a
(<4.E 4.EE/)	(16c#/LL	.	4cc#^\	O-	pp
.	16g#/	.	.	.	.
.	16cc#/	.	.	.	.
.	16g#/	.	.	.	.
.	16c#/	.	8b\	-tóż	.
.	16g#/JJ	.	.	.	.
4.F# 4.FF#/	16a/LL	.	8a/	wiel-	.
.	16f#/	.	.	.	.
.	16c#/	.	8g#/	-ka	.
.	16f#/	.	.	.	.
.	16a/	.	8f#/	mi	.
.	16f#/JJ	.	.	.	.
!!LO:PB:g=original
=115	=115	=115	=115	=115	=115
2.G# 2.GG#^\)	16B/LL	.	4.f#/	łas-	.
.	16d/	.	.	.	.
.	16f#/	.	.	.	.
.	16d/	.	.	.	.
.	16B/	.	.	.	.
.	16d/JJ	.	.	.	.
.	16e#X/LL	.	8e#X/	-ka,	.
.	16d/	.	.	.	.
.	16B/	.	8r	.	.
.	16d/	.	.	.	.
.	16e#/	.	8e#/	że	.
.	16d/JJ)	.	.	.	.
=116	=116	=116	=116	=116	=116
(<4.Gn 4.GGn\	(>16B/LL	.	8en/L	w dło-	.
.	16c#/	.	.	.	.
.	16en/	.	8d/J	.	.
.	16c#/	.	.	.	.
.	16B/	.	8e/	-nie	.
.	16c#/JJ	.	.	.	.
4.F# 4.FF#/	16f#/LL	.	4f#/	któś	.
.	16c#/	.	.	.	.
.	16A#X/	.	.	.	.
.	16c#/	.	.	.	.
.	16f#/	.	8c#/	za-	.
.	16c#/JJ	.	.	.	.
=117	=117	=117	=117	=117	=117
2.BB^/)	16A#X/LL	.	4.e/	-klas-	.
.	16c#/	.	.	.	.
.	16e/	.	.	.	.
.	16c#/	.	.	.	.
.	16A#/	.	.	.	.
.	16c#/JJ	.	.	.	.
.	16d/LL	.	4d/	-ka,	.
.	16B</	.	.	.	.
.	16F#</	.	.	.	.
.	16B</	.	.	.	.
.	16d/	.	8r	.	.
.	16B</JJ)	.	.	.	.
!!LO:LB:g=original
=118	=118	=118	=118	=118	=118
8C#L 8CC#\	(>16A</LL	.	8c#/L	a-	.
!	!LO:TX:i:b:t=ritenuto	!	!	!	!
.	16c#/	.	.	.	.
8A\	16f#/	<	8f#/J	.	.
.	16c#/	.	.	.	.
!	!	!	!LO:TX:i:a:t=riten.	!	!
8G#\J	16A/	.	8g#/	-le	.
.	16c#/JJ	.	.	.	.
8F#\L	16f#/LL	.	8a^>/	ser-	.
.	16c#/	.	.	.	.
8C#\	16A/	.	8b^\	-ce	.
.	16c#/	.	.	.	.
8AA\J	16f#/	.	8cc#^\	o-	.
.	16c#/JJ	[[	.	.	.
=119	=119	=119	=119	=119	=119
!	!	!LO:DY:b	!	!	!
(<4.GG#\	16B/LL	f >	([4.ddn;\	-dej-	.
!	!LO:TX:i:b:t=colla parte	!	!	!	!
.	16d/	.	.	.	.
.	16f#/	.	.	.	.
.	16d/	.	.	.	.
.	16B/	.	.	.	.
.	16d/JJ	.	.	.	.
4.C# 4.CC#\	16e#X/LL	.	4dd\]	.	.
.	16d/	.	.	.	.
.	16B</	]	.	.	.
.	16G#</	.	.	.	.
.	16E#X</	.	8cc#\)	.	.
.	16c#</JJ)	.	.	.	.
=120||	=120||	=120||	=120||	=120||	=120||
*	*^	*	*	*	*
!!LO:TX:B:a:t=Coda.
(16FF#/LL)	8f#/L	[4.f#\	.	4f#/	-mie!	.
16C#/	.	.	.	.	.	.
16A/	8cc#/	.	.	.	.	.
16C#/	.	.	.	.	.	.
16A/	8ff#/J	.	.	8r	.	.
16C#/JJ)	.	.	.	.	.	.
(16FF#/LL	4.dd/	8f#\]	.	8r	.	.
16D/	.	.	.	.	.	.
!	!	!	!	!	!	!LO:DY:a
16B/	.	8f#\L	.	8f#/	Li-	p
16D/	.	.	.	.	.	.
16B/	.	8g#\J	.	8g#/	-ro	.
16D/JJ)	.	.	.	.	.	.
!!LO:LB:g=original
=121	=121	=121	=121	=121	=121	=121
(16FF#\LL	8a/L	[4.a\	.	[4.a/	próż-	.
16C#\	.	.	.	.	.	.
16A\	8cc#/	.	.	.	.	.
16C#\	.	.	.	.	.	.
16A\	8ff#/J	.	.	.	.	.
16C#\JJ)	.	.	.	.	.	.
(16FF#\LL	4.dd/	8a\L]	>	8a/]	.	.
16D\	.	.	.	.	.	.
16B\	.	8f#\	.	8f#/	-naś	.
16D\	.	.	.	.	.	.
16B\	.	8g#\J	]	8g#/	przy-	.
16D\JJ)	.	.	.	.	.	.
=122	=122	=122	=122	=122	=122	=122
!	!	!	!LO:DY:b	!	!	!
(16FFn\LL	8r	4.a\	pp	4a/	-nę-	.
16Cn\	.	.	.	.	.	.
16A\	(8ccn/L	.	.	.	.	.
16C\	.	.	.	.	.	.
16A\	8ffn/J	.	.	8a/	-ty!	.
16C\JJ)	.	.	.	.	.	.
(16FF\LL	4.dd/)	8r	.	8r	.	.
16C\	.	.	.	.	.	.
16B-X\	.	8fn\L	.	8ccn\	strza-	.
16C\	.	.	.	.	.	.
16B-\	.	8gnJ 8e\	.	8b-X\	-skać	.
16C\JJ)	.	.	.	.	.	.
=123	=123	=123	=123	=123	=123	=123
(16FFn\LL	8r	[4.a 4.fn\	.	4.a/	by	.
16Cn\	.	.	.	.	.	.
16A\	(8ccn/L	.	.	.	.	.
16C\	.	.	.	.	.	.
16A\	8ee/J	.	.	.	.	.
16C\JJ)	.	.	.	.	.	.
(16BB\LL	4.dd#X/)	8a\L]	.	4bn\	cię	.
16F#X\	.	.	.	.	.	.
16B\	.	8b\	.	.	.	.
16F#\	.	.	.	.	.	.
16B\	.	8a\J	.	8a/	na	.
16F#\JJ)	.	.	.	.	.	.
!!LO:LB:g=original
=124	=124	=124	=124	=124	=124	=124
!	!	!	!LO:HP:b:t=crescendo	!	!	!
(16E\LL	8r	[4.g#\	<	4g#/	szczę-	.
16G#\	.	.	.	.	.	.
16B\	(8b/L	.	.	.	.	.
16G#\	.	.	.	.	.	.
16B\	8dd/J	.	.	8g#/	-ty,	.
16G#\JJ)	.	.	.	.	.	.
(16E#X\LL	4.cc#/)	8g#\]	.	8r	.	.
16G#\	.	.	.	.	.	.
16c#\	.	8g#\L	.	8cc#X\	z cie-	.
16G#\	.	.	.	.	.	.
16c#\	.	8b\J	.	8bn\	-bie	.
16G#\JJ)	.	.	.	.	.	.
=125	=125	=125	=125	=125	=125	=125
*^	*	*	*	*	*	*
!	!	!	!	!LO:DY:b	!	!	!
4F#/	16F#\LL	(<8a/L	4.a\	f	4.a/	cier-	.
.	16A\	.	.	.	.	.	.
.	16c#\	8cc#/	.	>	.	.	.
.	16A\	.	.	.	.	.	.
8E/	16E\	8aa/J)	.	.	.	.	.
.	16A\JJ	.	.	.	.	.	.
4D#X/	16D#\LL	(<8f#/L	4.f#\	.	4f#/	-nie	.
.	16F#\	.	.	.	.	.	.
.	16A\	8a/	.	.	.	.	.
.	16F#\	.	.	.	.	.	.
8Dn/	16D\	8ff#/J)	.	.	8f#/	i	.
.	16F#\JJ	.	.	.	.	.	.
=126	=126	=126	=126	=126	=126	=126	=126
!	!	!	!	!LO:DY:b	!	!	!
(<16C#/LL	4.C#\	8r	2.a 2.f#\	] p	2.cc#\	Krzy-	.
16F#/	.	.	.	.	.	.	.
!	!	!	!	!LO:DY:a	!	!	!
16A/	.	(<8b#X/L	.	pp	.	.	.
16F#/	.	.	.	.	.	.	.
16A/	.	8cc#/	.	.	.	.	.
16F#/JJ)	.	.	.	.	.	.	.
(<16C#/LL	4.C#\	8ee/	.	.	.	.	.
16F#/	.	.	.	.	.	.	.
16A/	.	8cc#/	.	.	.	.	.
16F#/	.	.	.	.	.	.	.
16A/	.	8dd/J)	.	.	.	.	.
16F#/JJ)	.	.	.	.	.	.	.
!!LO:PB:g=original
=127	=127	=127	=127	=127	=127	=127	=127
(<16C#/LL	4.C#\	8r	2.g# 2.e#X\	.	4c#/	-że!	.
16G#/	.	.	.	.	.	.	.
16B/	.	(<8a#X/L	.	.	.	.	.
16G#/	.	.	.	.	.	.	.
16B/	.	8b/	.	.	8r	.	.
16G#/JJ)	.	.	.	.	.	.	.
(<16C#/LL	4.C#\	8dd/	.	.	4r	.	.
16E#X/	.	.	.	.	.	.	.
16G#/	.	8b#X/	.	.	.	.	.
16E#/	.	.	.	.	.	.	.
16G#/	.	8cc#/J)	.	.	8r	.	.
16E#/JJ)	.	.	.	.	.	.	.
=128	=128	=128	=128	=128	=128	=128	=128
!	!	!LO:TX:i:a:t=un poco più animato	!	!	!LO:TX:i:a:t=un poco più animato	!	!
(<16FF#/LL	4.FF#\	8f#/L	[4.f#\	.	4r	.	.
16C#/	.	.	.	.	.	.	.
16A#X/	.	8cc#/	.	.	.	.	.
16C#/	.	.	.	.	.	.	.
16A#/	.	8ff#/J	.	.	8r	.	.
16C#/JJ)	.	.	.	.	.	.	.
(<16FF#/LL	4.FF#\	4.dd#X/	8f#\]	.	8r	.	.
16D#X/	.	.	.	.	.	.	.
16B/	.	.	8f#\L	.	8f#/	lecz	.
16D#/	.	.	.	.	.	.	.
16B/	.	.	8g#\J	.	8g#/	tyś	.
16D#/JJ)	.	.	.	.	.	.	.
!!LO:LB:g=original
=129	=129	=129	=129	=129	=129	=129	=129
(<16FF#/LL	4.FF#\	8a#X/L	4.a#\	.	[4.a#X/	pro-	.
16C#/	.	.	.	.	.	.	.
16A#X/	.	8cc#/	.	.	.	.	.
16C#/	.	.	.	.	.	.	.
16A#/	.	8ff#/J	.	.	.	.	.
16C#/JJ)	.	.	.	.	.	.	.
(<16FF#/LL	4.FF#\	4.dd#X/	8r	.	8a#/]	.	.
16D#X/	.	.	.	.	.	.	.
16B/	.	.	8f#\L	.	8f#/	-mień	.
16D#/	.	.	.	.	.	.	.
16B/	.	.	8g#\J	.	8g#/	mej	.
16D#/JJ)	.	.	.	.	.	.	.
=130	=130	=130	=130	=130	=130	=130	=130
!	!	!	!	!	!	!	!LO:DY:a
(16AA#X\LL	4.AA#/	8a#X/L	[4.a#\	.	4.a#X/	gło-	<
16E#X\	.	.	.	.	.	.	.
16c##X\	.	8ee#X/	.	.	.	.	.
16E#\	.	.	.	.	.	.	.
16c##\	.	8aa#X/J	.	.	.	.	.
16E#\JJ)	.	.	.	.	.	.	.
(16AA#\LL	4.AA#/	4.ff##X/	8a#\L]	.	8a#/	-wy,	.
16E#\	.	.	.	.	.	.	.
16d#X\	.	.	8f##X\	.	8a#/	wszak	.
16E#\	.	.	.	.	.	.	.
16d#\	.	.	8g##X\J	.	8b#X\	ja	[[
16E#\JJ)	.	.	.	.	.	.	.
!!LO:LB:g=original
=131	=131	=131	=131	=131	=131	=131	=131
!	!	!	!	!	!LO:TX:i:a:t=fiero	!	!
(16AA#X\LL	4.AA#/	8r	4.a#X\	.	4.cc##X^\	lir-	.
16E#X\	.	.	.	.	.	.	.
16c##X\	.	(8ee##X/L	.	.	.	.	.
16E#\	.	.	.	.	.	.	.
16c##\	.	8gg#/J	.	.	.	.	.
16E#\JJ)	.	.	.	.	.	.	.
(16D#X\LL	4.D#/	4.ff##X/)	8r	.	4dd#X\	-nik	.
16A#X\	.	.	.	.	.	.	.
16c#X\	.	.	8a#\L	.	.	.	.
16A#\	.	.	.	.	.	.	.
16c#\	.	.	8cc#X\J	.	8cc#X\	wio-	.
16A#\JJ)	.	.	.	.	.	.	.
=132	=132	=132	=132	=132	=132	=132	=132
!	!	!	!	!LO:HP:b:t=crescendo	!	!	!LO:HP:a
(<16GG#/LL	4.GG#\	8r	4.b#X\	<	4b#X\	-sko-	<
16D#X/	.	.	.	.	.	.	.
16B#X/	.	(8dd#X/L	.	.	.	.	.
16D#/	.	.	.	.	.	.	.
!	!	!LO:TX:t=P:problem:krzyżyk poprzedzony kasownikiem	!	!	!	!	!
16B#/	.	8ff#X/J	.	.	8b#\	-wy,	[
16D#/JJ)	.	.	.	.	.	.	.
!	!	!	!	!	!	!	!LO:HP:a
(<16C#/LL	4.C#\	4.ee#X/)	8r	.	4cc#\	sko-	>
16E#X/	.	.	.	.	.	.	.
16G#/	.	.	8g#\L	.	.	.	.
16E#/	.	.	.	.	.	.	.
16G#/	.	.	8bn\J	.	8bn\	-nam	]]
16E#/JJ)	.	.	.	.	.	.	.
!!LO:LB:g=original
=133	=133	=133	=133	=133	=133	=133	=133
!	!	!	!	!LO:DY:b	!	!	!
(16F#/LL	4F#\	(<8an/L	4.a\	f	4.an/	gra-	.
16A/	.	.	.	.	.	.	.
16c#/	.	8cc#/	.	.	.	.	.
16A/	.	.	.	.	.	.	.
16E/	8E\	8aa/J)	.	.	.	.	.
16A/JJ)	.	.	.	.	.	.	.
(16D#X/LL	4D#\	(<8f#/L	4.f#\	>	4f#/	-jąc	.
16F#/	.	.	.	.	.	.	.
16A/	.	8a/	.	.	.	.	.
16F#/	.	.	.	.	.	.	.
16Dn/	8D\	8ff#/J)	.	]	8ddn\	na	.
16F#/JJ)	.	.	.	.	.	.	.
=134	=134	=134	=134	=134	=134	=134	=134
!	!	!	!	!LO:DY:b	!	!	!
(<16C#/LL	4.C#\	8r	2.a 2.f#\	p	[4.cc#\	lir-	.
16F#/	.	.	.	.	.	.	.
!LO:TX:i:b:t=ac-ce-le-ran-do:ext2=cd:dur=10q	!	!	!	!	!	!	!
!	!	!	!	!LO:HP:a	!	!	!
16A/	.	(<8b#X/L	.	<	.	.	.
16F#/	.	.	.	.	.	.	.
16A/	.	8cc#/J	.	.	.	.	.
16F#/JJ)	.	.	.	.	.	.	.
!	!	!	!	!LO:HP:a	!	!	!
(<16C#/LL	4.C#\	8ee/L	.	[ >	(4cc#\]	.	.
16F#/	.	.	.	.	.	.	.
16A/	.	8cc#/	.	.	.	.	.
16F#/	.	.	.	.	.	.	.
16A/	.	8dd/J)	.	]	16b/LL	.	.
16F#/JJ)	.	.	.	.	16a/JJ)	.	.
!!LO:LB:g=original
=135	=135	=135	=135	=135	=135	=135	=135
*	*	*	*	*^	*	*	*
(<16C#/LL	4.C#\	8r	2.g# 2.e#X\	.	.	4g#/	-rze!	.
16G#/	.	.	.	.	.	.	.	.
!	!	!	!	!LO:HP:b:t=cre-scen-do:ext2=cd	!	!	!	!
!	!	!	!	!	!LO:HP:a	!	!	!
16Bn/	.	(<8b#X/L	.	<	<	.	.	.
16G#/	.	.	.	.	.	.	.	.
16B/	.	8cc#/J	.	.	.	8r	.	.
16G#/JJ)	.	.	.	.	.	.	.	.
!	!	!	!	!	!LO:HP:a	!	!	!
(<16C#/LL	4.C#\	8een/L	.	.	[ >	4r	.	.
16G#/	.	.	.	.	.	.	.	.
16B/	.	8cc#/	.	.	.	.	.	.
16G#/	.	.	.	.	.	.	.	.
16B/	.	8dd/J)	.	.	]	8g#/	ja	.
16G#/JJ)	.	.	.	.	.	.	.	.
=136	=136	=136	=136	=136	.	=136	=136	=136
(<16C#/LL	4.C#\	8r	2.a 2.f#\	.	.	4.a/	lir-	.
16F#/	.	.	.	.	.	.	.	.
!	!	!	!	!LO:HP:a	!	!	!	!
16A/	.	(<8b#X/L	.	<	.	.	.	.
16F#/	.	.	.	.	.	.	.	.
16A/	.	8cc#/J	.	.	.	.	.	.
16F#/JJ)	.	.	.	.	.	.	.	.
!	!	!	!	!LO:HP:a	!	!	!	!
(<16C#/LL	4.C#\	8ee/L	.	[ >	.	4g#/	-nik	.
16F#/	.	.	.	.	.	.	.	.
16A/	.	8cc#/	.	.	.	.	.	.
16F#/	.	.	.	.	.	.	.	.
16A/	.	8dd/J)	.	]	.	8f#/	wio-	.
16F#/JJ)	.	.	.	.	.	.	.	.
!!LO:LB:g=original
=137	=137	=137	=137	=137	=137	=137	=137	=137
(<16C#/LL	4.C#\	8r	2.g# 2.e#X\	.	.	4.e#X/	-sko-	.
16G#/	.	.	.	.	.	.	.	.
!	!	!	!	!	!LO:HP:a	!	!	!
16B/	.	(<8a#X/L	.	[	<	.	.	.
16G#/	.	.	.	.	.	.	.	.
16B/	.	8b/J	.	.	.	.	.	.
16G#/JJ)	.	.	.	.	.	.	.	.
!	!	!	!	!	!LO:HP:a	!	!	!
(<16C#/LL	4.C#\	8dd/L	.	.	[ >	4g#/	-wy,	.
16E#X/	.	.	.	.	.	.	.	.
16G#/	.	8b#/	.	.	.	.	.	.
16E#/	.	.	.	.	.	.	.	.
16G#/	.	8cc#/J)	.	.	]	8r	.	.
16E#/JJ)	.	.	.	.	.	.	.	.
*	*	*	*	*v	*v	*	*	*
*v	*v	*	*	*	*	*	*
*	*v	*v	*	*	*	*
=138	=138	=138	=138	=138	=138
!	!LO:TX:B:a:t=Presto.	!	!LO:TX:B:a:t=Presto.	!	!
8AL 8F#'\	8aL 8f#'/	.	[4.f#^>/	sko-	.
8A 8E#X'\	8a#X 8f#'/	<	.	.	.
8AJ 8En'\	8bJ 8f#'/	.	.	.	.
8AL 8D#X'\	8b#XL 8f#'/	.	4f#/]	.	.
8A 8Dn'\	8cc# 8f#'/	.	.	.	.
8AJ 8C#'\	8ddJ 8f#'/	.	8f#/	-nam	.
=139	=139	=139	=139	=139	=139
8AL 8BB#X'\	8dd#XL 8f#'/	.	4.a/	gra-	.
8A 8BBn'\	8ee 8f#'/	.	.	.	.
8AJ 8AA#X'\	8ee#XJ 8f#'/	.	.	.	.
8AL 8AAn'\	8ff#L 8f#'/	.	8f#/	-jąc,	.
8G# 8GG#'\	8ff##X 8f##X'/	.	8r	.	.
8F#J 8FF#'\	8gg#J 8g#'/	[[	8r	.	.
!!LO:LB:g=original
=140	=140	=140	=140	=140	=140
*	*	*	*^	*	*
!	!	!LO:DY:b	!LO:TX:i:a:t=ad libit.	!	!	!
8C# 8CC#/	8aa 8ff# 8cc# 8a\	sff	4r	4.ryy	.	.
8r	8r	.	.	.	.	.
8r	8r	.	8re	.	.	.
*	*	*	*	*cue	*	*
4r	4r	.	[4.cc#^;\	[>4.ff#/	sko-	.
8r	8r	.	.	.	.	.
=141	=141	=141	=141	=141	=141	=141
2.C# 2.CC#\	(>2.e#X 2.B< 2.G#</	fp	4cc#\]	4ff#/]	.	.
!	!	!	!LO:TX:i:a:t=lento	!	!	!
.	.	.	8c#/	8cc#/	-nam	.
*	*	*	*	*Xcue	*	*
.	.	.	8b\	8ryy	gra-	.
.	.	.	8a/	8ryy	-jąc	.
.	.	.	8g#/	8ryy	na	.
*	*	*	*v	*v	*	*
=142	=142	=142	=142	=142	=142
*^	*	*	*	*	*
!LO:N:vis=2.	!	!LO:TX:B:a:t=Tempo Io.	!LO:DY:b=2	!	!	!
(<8FF#/L	2.FF#\	8f# 8A</)	ff	8g#/	li-	.
.	.	(8qf#/	f	.	.	.
8C#/	.	([4ff# [>4f#^<\)	.	8f#/	-rze!	.
8F#/	.	.	.	8r	.	.
8A/	.	8ff#]L 8f#\]	.	4r	.	.
8F#/	.	8ee\	.	.	.	.
8C#/J)	.	8dd\J	.	8r	.	.
=143	=143	=143	=143	=143	=143	=143
!LO:N:vis=2.	!	!	!	!	!	!
(<8AA/L	2.AA\	8cc#t\L	<	2.r	.	.
8C#/	.	8b\	.	.	.	.
8F#/	.	8cc#\J	[	.	.	.
8c#/	.	8ee\L	>	.	.	.
8F#/	.	8dd\	.	.	.	.
8C#/J)	.	8cc#\J)	]]	.	.	.
!!LO:LB:g=original
=144	=144	=144	=144	=144	=144	=144
!LO:N:vis=2.	!	!	!	!	!	!
(<8GG#/L	2.GG#\	(4.cc#^\	.	2.r	.	.
8D/	.	.	.	.	.	.
8F#/	.	.	.	.	.	.
8B/	.	4b\	.	.	.	.
8D/	.	.	.	.	.	.
8F#/J)	.	8a/)	.	.	.	.
=145	=145	=145	=145	=145	=145	=145
(8E#X/L	2.C#\	(>8g#/L	>	2.r	.	.
8F#/	.	8a/	.	.	.	.
8G#/	.	8b/	.	.	.	.
8A/	.	8cc#/	.	.	.	.
8B/	.	8g#/	.	.	.	.
8c#/J)	.	8a/J)	]]	.	.	.
*v	*v	*	*	*	*	*
=146	=146	=146	=146	=146	=146
*ped	*	*	*	*	*
4FF#/	4f#/	.	2.r	.	.
8r	8r	.	.	.	.
!	!	!LO:DY:b	!	!	!
4c#:: 4A:: 4F#:: 4C#::\	4ff#:: 4cc#:: 4a:: 4f#::\	p	.	.	.
8r	8r	.	.	.	.
=147	=147	=147	=147	=147	=147
4C# 4FF#/	4f# 4A/	.	2.r	.	.
8r	8r	.	.	.	.
4f#>:: 4c#>:: 4A:: 4F#::\	4aa:: 4ff#:: 4cc#:: 4a::/	.	.	.	.
8r	8r	.	.	.	.
=148	=148	=148	=148	=148	=148
2.C# 2.FF#;</	2.f# 2.A;/	.	2.r;	.	.
==	==	==	==	==	==
*-	*-	*-	*-	*-	*-
!!!system-decoration: p1{(p2)}
!!!RDF**kern: > = above
!!!RDF**kern: < = below
!!!ENC: Berenika Jozajtis
!!!END: 2022-08-24
!!!ENC: Kamil Watkowski
!!!END: 2022-09-24
